public/assets/github.svg

<svg width="32" height="32" viewBox="0 0 32 32" fill="none" xmlns="http://www.w3.org/2000/svg">
<path d="M15.9956 3.07373C8.8831 3.07373 3.12659 8.83953 3.12659 15.9435C3.12659 21.6285 6.81758 26.4603 11.9274 28.1577C12.574 28.2744 12.7805 27.8792 12.7805 27.538V25.14C9.19734 25.9214 8.45202 23.6223 8.45202 23.6223C7.86829 22.1314 7.02416 21.7362 7.02416 21.7362C5.85671 20.9369 7.11395 20.9549 7.11395 20.9549C8.40712 21.0447 9.08959 22.2841 9.08959 22.2841C10.2391 24.2509 12.0981 23.6851 12.8345 23.3528C12.9512 22.5176 13.2835 21.9518 13.6517 21.6285C10.7959 21.3052 7.78748 20.2005 7.78748 15.2609C7.78748 13.8509 8.29036 12.7103 9.11656 11.8033C8.98185 11.4799 8.54183 10.1687 9.2423 8.39946C9.2423 8.39946 10.3199 8.05819 12.7805 9.71967C13.8043 9.43228 14.909 9.28858 16.0046 9.28858C17.1002 9.29756 18.2047 9.43228 19.2285 9.71967C21.6891 8.05819 22.7667 8.39946 22.7667 8.39946C23.4672 10.1687 23.0272 11.4799 22.8925 11.8033C23.7187 12.7014 24.2216 13.8509 24.2216 15.2609C24.2216 20.2095 21.2132 21.2962 18.3395 21.6105C18.7975 22.0057 19.2195 22.796 19.2195 23.9905V27.52C19.2195 27.8613 19.426 28.2654 20.0816 28.1397C25.1915 26.4333 28.8735 21.6105 28.8735 15.9255C28.8735 8.83953 23.1081 3.07373 15.9956 3.07373Z" fill="white"/>
</svg>

<svg width="32" height="32" fill="none" xmlns="http://www.w3.org/2000/svg"><path d="M16 3.07a12.87 12.87 0 00-4.07 25.09c.64.11.85-.28.85-.62v-2.4c-3.58.78-4.33-1.52-4.33-1.52-.58-1.49-1.43-1.88-1.43-1.88-1.16-.8.1-.79.1-.79 1.29.1 1.97 1.33 1.97 1.33 1.15 1.97 3 1.4 3.74 1.07.12-.83.45-1.4.82-1.72-2.85-.32-5.86-1.43-5.86-6.37 0-1.4.5-2.55 1.33-3.46a4.6 4.6 0 01.12-3.4s1.08-.34 3.54 1.32a12.04 12.04 0 016.45 0c2.46-1.66 3.54-1.32 3.54-1.32a4.6 4.6 0 01.12 3.4c.83.9 1.33 2.05 1.33 3.46 0 4.95-3 6.04-5.88 6.35.46.4.88 1.19.88 2.38v3.53c0 .34.2.75.86.62A12.88 12.88 0 0016 3.07z" fill="#fff"/></svg>
